X:1
T:Rimsky-Korsakov harmonic exercises 23
T:Rimsky-Korsakov harmonic exercises 23
T:Realizations by S. Shchetnikov
T:"Practical Manual of Harmony" (1885)
C:Realizations by S. Shchetnikov
%%score { ( 1 2 ) | ( 3 4 ) }
L:1/8
Q:1/2=80
M:4/4
K:C
V:1 treble nm="Piano" snm="Pno."
V:2 treble 
V:3 bass 
V:4 bass 
V:1
"""^Special forms of plagal cadences""_C:""^Examples by Rimsky-Korsakov:" G4"" c4 |"" c4"" d4 | %2
"" e8 |]"" G4"" c4 |"" c4"" d4 |"" e8 |]"""_a:" E4"" A4 |"""" F8 |"" E8 |]"" E4"" A4 |"""" F8 | %11
"" E8 |][K:D][M:4/4][Q:1/4=100] z8 | z8 | z8 | z8 | z8 | z8 | z8 | z8 |] %20
"""^Realization 23.1""_b:" B4"" d4 |"""" c8 |"" d4 f4 |"" e4"" d4 |"""" c8 |"" B4 d4 |"" g4"" c4 | %27
"" d8 |] %28
V:2
 E4 G4 | !courtesy!_A8 | G8 |] E4 G4 | A8 | G8 |] C4 E4 | D4 B,4 | C8 |] C4 E4 | D4 B,4 | C8 |] %12
[K:D][M:4/4] x8 | x8 | x8 | x8 | x8 | x8 | x8 | x8 |] F4 G4 | G8 | F8 | ^A4 B4- | B4 ^A4 | B8 | %26
 B8 | B8 |] %28
V:3
 C8 | C8 | C8 |] C8 | A,4 B,4 | C8 |] A,8 | A,8 | A,8 |] A,8 | A,4 ^G,4 | A,8 |] %12
[K:D][M:4/4]"^Exercise 23.1" B,4 G,4 | E,8 | D,8 | C,4 B,,4 | G,4 F,4 | D,8 | E,8 | B,,8 |] %20
 D4 B,4- | B,4 ^A,4 | B,8 | C4 D4 | E4 F4 | F8 | E4 G4 | F8 |] %28
V:4
 C,4 E,4 | F,8 | C,8 |] C,4 E,4 | F,8 | C,8 |] A,,4 C,4 | D,8 | A,,8 |] A,,4 C,4 | D,8 | A,,8 |] %12
[K:D][M:4/4] x8 | x8 | x8 | x8 | x8 | x8 | x8 | x8 |] B,4 G,4 | E,8 | D,8 | C,4 B,,4 | G,4 F,4 | %25
 D,8 | E,8 | B,,8 |] %28

